src/atm.svg

<?xml version="1.0" encoding="UTF-8" standalone="no"?>
<!-- Created with Inkscape (http://www.inkscape.org/) -->

<svg
   xmlns:dc="http://purl.org/dc/elements/1.1/"
   xmlns:cc="http://creativecommons.org/ns#"
   xmlns:rdf="http://www.w3.org/1999/02/22-rdf-syntax-ns#"
   xmlns:svg="http://www.w3.org/2000/svg"
   xmlns="http://www.w3.org/2000/svg"
   xmlns:sodipodi="http://sodipodi.sourceforge.net/DTD/sodipodi-0.dtd"
   xmlns:inkscape="http://www.inkscape.org/namespaces/inkscape"
   version="1.0"
   width="580"
   height="580"
   id="svg2"
   sodipodi:version="0.32"
   inkscape:version="0.48.4 r9939"
   sodipodi:docname="atm.svg"
   inkscape:output_extension="org.inkscape.output.svg.inkscape">
  <metadata
     id="metadata2975">
    <rdf:RDF>
      <cc:Work
         rdf:about="">
        <dc:format>image/svg+xml</dc:format>
        <dc:type
           rdf:resource="http://purl.org/dc/dcmitype/StillImage" />
        <cc:license
           rdf:resource="http://web.resource.org/cc/PublicDomain" />
        <dc:language>en</dc:language>
      </cc:Work>
    </rdf:RDF>
  </metadata>
  <sodipodi:namedview
     inkscape:window-height="997"
     inkscape:window-width="1280"
     inkscape:pageshadow="2"
     inkscape:pageopacity="0.0"
     guidetolerance="10.0"
     gridtolerance="10.0"
     objecttolerance="10.0"
     borderopacity="1.0"
     bordercolor="#666666"
     pagecolor="#ffffff"
     id="base"
     inkscape:zoom="1.3034483"
     inkscape:cx="285.84646"
     inkscape:cy="302.63451"
     inkscape:window-x="0"
     inkscape:window-y="24"
     inkscape:current-layer="svg2"
     showgrid="false"
     inkscape:window-maximized="0" />
  <defs
     id="defs4">
    <inkscape:perspective
       sodipodi:type="inkscape:persp3d"
       inkscape:vp_x="0 : 290 : 1"
       inkscape:vp_y="0 : 1000 : 0"
       inkscape:vp_z="580 : 290 : 1"
       inkscape:persp3d-origin="290 : 193.33333 : 1"
       id="perspective2441" />
  </defs>
  <path
     style="opacity:0.75;fill:#000000;;fill-opacity:1;stroke:#000000;;stroke-width:35.84500122;stroke-linecap:round;stroke-linejoin:round;stroke-miterlimit:4;stroke-dasharray:none;stroke-dashoffset:0;stroke-opacity:1"
     d="M 103.97867,82.41299 L 103.97867,145.33701 L 216.3814,145.33701 C 224.15917,124.71544 229.09653,111.16532 229.42334,109.26998 L 420.41399,107.62293 L 435.00214,145.33701 L 504.61508,145.33701 L 504.61508,82.41299 L 103.97867,82.41299 z"
     id="rect3241"
     sodipodi:nodetypes="ccccccccc" />
  <path
     style="fill:none;fill-opacity:1;fill-rule:evenodd;stroke:#000000;;stroke-width:20;stroke-linecap:butt;stroke-linejoin:round;stroke-miterlimit:4;stroke-dasharray:none;stroke-opacity:1"
     d="M 227.90625,158.09375 L 187.53125,158.46875 C 185.9283,167.76484 65.21875,517.09375 65.21875,517.09375 L 469.03125,513.6875 L 453.4375,473.375 L 120.34375,476.21875 C 120.34375,476.21875 195.43768,243.83219 227.90625,158.09375 z"
     id="path2443"
     sodipodi:nodetypes="ccccccc" />
  <path
     style="fill:none;fill-opacity:1;fill-rule:evenodd;stroke:#000000;;stroke-width:20;stroke-linecap:butt;stroke-linejoin:round;stroke-miterlimit:4;stroke-dasharray:none;stroke-opacity:1"
     d="M 242.69409,117.58802 C 241.09113,126.88411 120.35624,476.20649 120.35624,476.20649 L 524.19401,472.79401 L 401.65273,116.06864 L 242.69409,117.58802 z"
     id="path3243"
     sodipodi:nodetypes="ccccc" />
  <g
     id="g4372"
     transform="translate(-130.0802,122.26983)" />
  <g
     id="g5004"
     transform="translate(-133.14896,123.86039)">
    <path
       inkscape:connector-curvature="0"
       id="text2413"
       d="m 428.26872,167.17928 c 0.21028,0.10532 0.99921,0.3157 2.36679,0.63114 21.56392,4.20775 37.76324,11.88665 48.598,23.03672 10.83446,11.15029 16.25177,25.77175 16.25193,43.86443 -1.6e-4,18.51357 -5.94342,34.55511 -17.82979,48.12465 -11.88666,13.56957 -28.34895,20.9329 -49.38693,22.09 l 0,28.717 -16.88307,0 0,-28.40143 c -21.45892,-2.41938 -37.92122,-9.38825 -49.38694,-20.90661 -11.46578,-11.51833 -17.93499,-27.63875 -19.40764,-48.36132 l 28.40143,-5.04915 c 2.20896,15.56825 6.67955,27.55995 13.41179,35.97515 6.73213,8.41526 15.72591,13.20143 26.98136,14.3585 l 0,-90.41122 c -21.35373,-4.62827 -37.34267,-12.35976 -47.96686,-23.1945 -10.62427,-10.83448 -15.93638,-24.77221 -15.93636,-41.81322 -2e-5,-16.93548 5.2595,-31.478049 15.77857,-43.627756 10.51901,-12.149271 26.56054,-19.170729 48.12465,-21.064395 l 0,-13.569573 16.88307,0 0,13.569573 c 17.88227,1.788476 31.97778,7.468756 42.28658,17.040859 10.30851,9.572546 16.77772,22.984322 19.40764,40.235362 l -29.50593,4.26021 C 458.77383,111.95446 455.24996,103.46034 449.88537,97.201308 444.52054,90.942683 437.315,86.919151 428.26872,85.1307 l 0,82.04858 z m -16.88307,-3.47129 0,-78.892862 c -11.46584,1.998833 -20.24923,6.600912 -26.35022,13.806251 -6.1011,7.205741 -9.15162,15.542081 -9.15157,25.009041 -5e-5,10.83478 3.15566,19.3815 9.46714,25.64018 6.31137,6.25898 14.98958,11.07144 26.03465,14.43739 l 0,0 z m 16.88307,117.55037 c 11.04489,-1.68303 20.14386,-6.49549 27.29693,-14.43739 7.15282,-7.94184 10.72929,-17.96123 10.72943,-30.05819 -1.4e-4,-10.62416 -2.70879,-19.17088 -8.12596,-25.64018 -5.41744,-6.46912 -15.38423,-11.96531 -29.9004,-16.4886 l 0,86.62436 z"
       style="font-size:323.14517212px;font-style:normal;font-variant:normal;font-weight:normal;font-stretch:normal;text-align:start;line-height:125%;writing-mode:lr-tb;text-anchor:start;fill:#000000;fill-opacity:1;stroke:none;font-family:Arial Unicode MS;-inkscape-font-specification:Arial Unicode MS"
       transform="scale(1.0867055,0.9202125)" />
  </g>
  <path
     style="font-size:medium;font-style:normal;font-variant:normal;font-weight:normal;font-stretch:normal;text-indent:0;text-align:start;text-decoration:none;line-height:normal;letter-spacing:normal;word-spacing:normal;text-transform:none;direction:ltr;block-progression:tb;writing-mode:lr-tb;text-anchor:start;baseline-shift:baseline;color:#000000;fill:#000000;fill-opacity:1;stroke:none;stroke-width:1;marker:none;visibility:visible;display:inline;overflow:visible;enable-background:accumulate;font-family:Sans;-inkscape-font-specification:Sans"
     d="m 322,152.0625 a 15.0015,15.0015 0 0 0 -14.78125,15.21875 l 0,265.0625 a 15.0015,15.0015 0 1 0 30,0 l 0,-265.0625 A 15.0015,15.0015 0 0 0 322,152.0625 z"
     id="path4370"
     inkscape:connector-curvature="0" />
</svg>

<?xml version="1.0" encoding="UTF-8" standalone="no"?>
<!-- Created with Inkscape (http://www.inkscape.org/) -->

<svg
   xmlns:dc="http://purl.org/dc/elements/1.1/"
   xmlns:cc="http://creativecommons.org/ns#"
   xmlns:rdf="http://www.w3.org/1999/02/22-rdf-syntax-ns#"
   xmlns:svg="http://www.w3.org/2000/svg"
   xmlns="http://www.w3.org/2000/svg"
   xmlns:sodipodi="http://sodipodi.sourceforge.net/DTD/sodipodi-0.dtd"
   xmlns:inkscape="http://www.inkscape.org/namespaces/inkscape"
   version="1.0"
   width="580"
   height="580"
   id="svg2"
   sodipodi:version="0.32"
   inkscape:version="0.48.4 r9939"
   sodipodi:docname="atm.svg"
   inkscape:output_extension="org.inkscape.output.svg.inkscape">
  <metadata
     id="metadata2975">
    <rdf:RDF>
      <cc:Work
         rdf:about="">
        <dc:format>image/svg+xml</dc:format>
        <dc:type
           rdf:resource="http://purl.org/dc/dcmitype/StillImage" />
        <cc:license
           rdf:resource="http://web.resource.org/cc/PublicDomain" />
        <dc:language>en</dc:language>
      </cc:Work>
    </rdf:RDF>
  </metadata>
  <sodipodi:namedview
     inkscape:window-height="997"
     inkscape:window-width="1280"
     inkscape:pageshadow="2"
     inkscape:pageopacity="0.0"
     guidetolerance="10.0"
     gridtolerance="10.0"
     objecttolerance="10.0"
     borderopacity="1.0"
     bordercolor="#666666"
     pagecolor="#ffffff"
     id="base"
     inkscape:zoom="1.3034483"
     inkscape:cx="285.84646"
     inkscape:cy="302.63451"
     inkscape:window-x="0"
     inkscape:window-y="24"
     inkscape:current-layer="svg2"
     showgrid="false"
     inkscape:window-maximized="0" />
  <defs
     id="defs4">
    <inkscape:perspective
       sodipodi:type="inkscape:persp3d"
       inkscape:vp_x="0 : 290 : 1"
       inkscape:vp_y="0 : 1000 : 0"
       inkscape:vp_z="580 : 290 : 1"
       inkscape:persp3d-origin="290 : 193.33333 : 1"
       id="perspective2441" />
  </defs>
  <path
     style="opacity:0.75;fill:#000000;;fill-opacity:1;stroke:#000000;;stroke-width:35.84500122;stroke-linecap:round;stroke-linejoin:round;stroke-miterlimit:4;stroke-dasharray:none;stroke-dashoffset:0;stroke-opacity:1"
     d="M 103.97867,82.41299 L 103.97867,145.33701 L 216.3814,145.33701 C 224.15917,124.71544 229.09653,111.16532 229.42334,109.26998 L 420.41399,107.62293 L 435.00214,145.33701 L 504.61508,145.33701 L 504.61508,82.41299 L 103.97867,82.41299 z"
     id="rect3241"
     sodipodi:nodetypes="ccccccccc" />
  <path
     style="fill:none;fill-opacity:1;fill-rule:evenodd;stroke:#000000;;stroke-width:20;stroke-linecap:butt;stroke-linejoin:round;stroke-miterlimit:4;stroke-dasharray:none;stroke-opacity:1"
     d="M 227.90625,158.09375 L 187.53125,158.46875 C 185.9283,167.76484 65.21875,517.09375 65.21875,517.09375 L 469.03125,513.6875 L 453.4375,473.375 L 120.34375,476.21875 C 120.34375,476.21875 195.43768,243.83219 227.90625,158.09375 z"
     id="path2443"
     sodipodi:nodetypes="ccccccc" />
  <path
     style="fill:none;fill-opacity:1;fill-rule:evenodd;stroke:#000000;;stroke-width:20;stroke-linecap:butt;stroke-linejoin:round;stroke-miterlimit:4;stroke-dasharray:none;stroke-opacity:1"
     d="M 242.69409,117.58802 C 241.09113,126.88411 120.35624,476.20649 120.35624,476.20649 L 524.19401,472.79401 L 401.65273,116.06864 L 242.69409,117.58802 z"
     id="path3243"
     sodipodi:nodetypes="ccccc" />
  <g
     id="g4372"
     transform="translate(-130.0802,122.26983)" />
  <g
     id="g4998"
     transform="translate(-133.14896,123.86039)">
    <g
       id="g5004">
      <path
         transform="scale(1.0867055,0.9202125)"
         style="font-size:323.14517212px;font-style:normal;font-variant:normal;font-weight:normal;font-stretch:normal;text-align:start;line-height:125%;writing-mode:lr-tb;text-anchor:start;fill:#000000;;fill-opacity:1;stroke:none;stroke-width:1px;stroke-linecap:butt;stroke-linejoin:miter;stroke-opacity:1;font-family:Arial Unicode MS;-inkscape-font-specification:Arial Unicode MS"
         d="M 428.26872,167.17928 C 428.479,167.2846 429.26793,167.49498 430.63551,167.81042 C 452.19943,172.01817 468.39875,179.69707 479.23351,190.84714 C 490.06797,201.99743 495.48528,216.61889 495.48544,234.71157 C 495.48528,253.22514 489.54202,269.26668 477.65565,282.83622 C 465.76899,296.40579 449.3067,303.76912 428.26872,304.92622 L 428.26872,333.64322 L 411.38565,333.64322 L 411.38565,305.24179 C 389.92673,302.82241 373.46443,295.85354 361.99871,284.33518 C 350.53293,272.81685 344.06372,256.69643 342.59107,235.97386 L 370.9925,230.92471 C 373.20146,246.49296 377.67205,258.48466 384.40429,266.89986 C 391.13642,275.31512 400.1302,280.10129 411.38565,281.25836 L 411.38565,190.84714 C 390.03192,186.21887 374.04298,178.48738 363.41879,167.65264 C 352.79452,156.81816 347.48241,142.88043 347.48243,125.83942 C 347.48241,108.90394 352.74193,94.361371 363.261,82.211664 C 373.78001,70.062393 389.82154,63.040935 411.38565,61.147269 L 411.38565,47.577696 L 428.26872,47.577696 L 428.26872,61.147269 C 446.15099,62.935745 460.2465,68.616025 470.5553,78.188128 C 480.86381,87.760674 487.33302,101.17245 489.96294,118.42349 L 460.45701,122.6837 C 458.77383,111.95446 455.24996,103.46034 449.88537,97.201308 C 444.52054,90.942683 437.315,86.919151 428.26872,85.1307 L 428.26872,167.17928 z M 411.38565,163.70799 L 411.38565,84.815128 C 399.91981,86.813961 391.13642,91.41604 385.03543,98.621379 C 378.93433,105.82712 375.88381,114.16346 375.88386,123.63042 C 375.88381,134.4652 379.03952,143.01192 385.351,149.2706 C 391.66237,155.52958 400.34058,160.34204 411.38565,163.70799 L 411.38565,163.70799 z M 428.26872,281.25836 C 439.31361,279.57533 448.41258,274.76287 455.56565,266.82097 C 462.71847,258.87913 466.29494,248.85974 466.29508,236.76278 C 466.29494,226.13862 463.58629,217.5919 458.16912,211.1226 C 452.75168,204.65348 442.78489,199.15729 428.26872,194.634 L 428.26872,281.25836 z"
         id="text2413" />
    </g>
    <path
       sodipodi:nodetypes="cc"
       id="path4370"
       d="M 455.37677,43.427273 L 455.37677,308.471"
       style="fill:none;fill-rule:evenodd;stroke:#000000;;stroke-width:30;stroke-linecap:round;stroke-linejoin:round;stroke-miterlimit:4;stroke-dasharray:none;stroke-opacity:1" />
  </g>
</svg>
